X:62
T: Ech hun e Freier, S. 30
N: L0022V
O: Luxemburg
S: Die Luxemburger Volkslieder lterer Zeit, Luxemburg 1904 posth.]
N: nahezu mit Sign 0021 identisch
R: ??, Liebeslied]
M: 2/4
L: 1/16
K: F
C2 | F2F2A2F2 | c2c2c2
f2 | c2A2B2GG | A2F2F2
AA | GGGGG2BB | AFFFF2
f2 | c2A2B2GG | A2F2F2

